images/icons/bespoke.svg

<?xml version="1.0" encoding="UTF-8" standalone="no"?>
<svg
   xmlns:dc="http://purl.org/dc/elements/1.1/"
   xmlns:cc="http://creativecommons.org/ns#"
   xmlns:rdf="http://www.w3.org/1999/02/22-rdf-syntax-ns#"
   xmlns:svg="http://www.w3.org/2000/svg"
   xmlns="http://www.w3.org/2000/svg"
   id="svg1191"
   style="fill-rule:evenodd;clip-rule:evenodd;stroke-linecap:round;stroke-linejoin:round;stroke-miterlimit:1.5;"
   xml:space="preserve"
   version="1.1"
   viewBox="0 0 800 600"
   height="100%"
   width="100%"><metadata
   id="metadata1197"><rdf:RDF><cc:Work
       rdf:about=""><dc:format>image/svg+xml</dc:format><dc:type
         rdf:resource="http://purl.org/dc/dcmitype/StillImage" /><dc:title></dc:title></cc:Work></rdf:RDF></metadata><defs
   id="defs1195" />
    
    
<g
   style="fill:#000000;fill-opacity:1;opacity:1"
   transform="translate(-2.941155,715.50715)"
   id="g5506"><path
     id="path5719"
     transform="translate(2.941155,-715.50715)"
     d="M 271.7793 121.08203 L 271.7793 159.57617 C 242.48617 164.38738 219.97852 189.94181 219.97852 220.55078 C 219.97852 251.15978 242.48614 276.71421 271.7793 281.52539 L 271.7793 478.91992 L 291.7793 478.91992 L 291.7793 281.52539 C 321.07264 276.71437 343.58008 251.15991 343.58008 220.55078 C 343.58008 189.94167 321.07261 164.38722 291.7793 159.57617 L 291.7793 121.08203 L 271.7793 121.08203 z M 281.7793 178.75 C 304.98372 178.75 323.58008 197.34636 323.58008 220.55078 C 323.58008 243.75519 304.98372 262.35156 281.7793 262.35156 C 258.57489 262.35156 239.97852 243.75519 239.97852 220.55078 C 239.97852 197.34636 258.57489 178.75 281.7793 178.75 z "
     style="color:#000000;font-style:normal;font-variant:normal;font-weight:normal;font-stretch:normal;font-size:medium;line-height:normal;font-family:sans-serif;font-variant-ligatures:normal;font-variant-position:normal;font-variant-caps:normal;font-variant-numeric:normal;font-variant-alternates:normal;font-feature-settings:normal;text-indent:0;text-align:start;text-decoration:none;text-decoration-line:none;text-decoration-style:solid;text-decoration-color:#000000;letter-spacing:normal;word-spacing:normal;text-transform:none;writing-mode:lr-tb;direction:ltr;text-orientation:mixed;dominant-baseline:auto;baseline-shift:baseline;text-anchor:start;white-space:normal;shape-padding:0;clip-rule:nonzero;display:inline;overflow:visible;visibility:visible;opacity:1;isolation:auto;mix-blend-mode:normal;color-interpolation:sRGB;color-interpolation-filters:linearRGB;solid-color:#000000;solid-opacity:1;vector-effect:none;fill:#000000;fill-opacity:1;fill-rule:nonzero;stroke:none;stroke-width:20;stroke-linecap:butt;stroke-linejoin:miter;stroke-miterlimit:1.5;stroke-dasharray:none;stroke-dashoffset:0;stroke-opacity:1;color-rendering:auto;image-rendering:auto;shape-rendering:auto;text-rendering:auto;enable-background:accumulate" /><path
     id="path5719-2"
     transform="translate(2.941155,-715.50715)"
     d="M 390 121.08203 L 390 319.57617 C 360.70687 324.38738 338.19922 349.94181 338.19922 380.55078 C 338.19922 411.15978 360.70684 436.71421 390 441.52539 L 390 478.91992 L 410 478.91992 L 410 441.52539 C 439.29334 436.71437 461.80078 411.15991 461.80078 380.55078 C 461.80078 349.94167 439.29331 324.38722 410 319.57617 L 410 121.08203 L 390 121.08203 z M 400 338.75 C 423.20441 338.75 441.80078 357.34636 441.80078 380.55078 C 441.80078 403.75519 423.20441 422.35156 400 422.35156 C 376.79558 422.35156 358.19922 403.75519 358.19922 380.55078 C 358.19922 357.34636 376.79558 338.75 400 338.75 z "
     style="color:#000000;font-style:normal;font-variant:normal;font-weight:normal;font-stretch:normal;font-size:medium;line-height:normal;font-family:sans-serif;font-variant-ligatures:normal;font-variant-position:normal;font-variant-caps:normal;font-variant-numeric:normal;font-variant-alternates:normal;font-feature-settings:normal;text-indent:0;text-align:start;text-decoration:none;text-decoration-line:none;text-decoration-style:solid;text-decoration-color:#000000;letter-spacing:normal;word-spacing:normal;text-transform:none;writing-mode:lr-tb;direction:ltr;text-orientation:mixed;dominant-baseline:auto;baseline-shift:baseline;text-anchor:start;white-space:normal;shape-padding:0;clip-rule:evenodd;display:inline;overflow:visible;visibility:visible;opacity:1;isolation:auto;mix-blend-mode:normal;color-interpolation:sRGB;color-interpolation-filters:linearRGB;solid-color:#000000;solid-opacity:1;vector-effect:none;fill:#000000;fill-opacity:1;fill-rule:evenodd;stroke:none;stroke-width:20;stroke-linecap:butt;stroke-linejoin:miter;stroke-miterlimit:1.5;stroke-dasharray:none;stroke-dashoffset:0;stroke-opacity:1;color-rendering:auto;image-rendering:auto;shape-rendering:auto;text-rendering:auto;enable-background:accumulate" /><path
     id="path5719-2-9"
     transform="translate(2.941155,-715.50715)"
     d="M 508.2207 121.08203 L 508.2207 219.57617 C 478.92758 224.38738 456.41992 249.94181 456.41992 280.55078 C 456.41992 311.15978 478.92755 336.71421 508.2207 341.52539 L 508.2207 478.91992 L 528.2207 478.91992 L 528.2207 341.52539 C 557.51405 336.71437 580.02148 311.15991 580.02148 280.55078 C 580.02148 249.94167 557.51402 224.38722 528.2207 219.57617 L 528.2207 121.08203 L 508.2207 121.08203 z M 518.2207 238.75 C 541.42512 238.75 560.02148 257.34636 560.02148 280.55078 C 560.02148 303.75519 541.42512 322.35156 518.2207 322.35156 C 495.01628 322.35156 476.41992 303.75519 476.41992 280.55078 C 476.41992 257.34636 495.01628 238.75 518.2207 238.75 z "
     style="color:#000000;font-style:normal;font-variant:normal;font-weight:normal;font-stretch:normal;font-size:medium;line-height:normal;font-family:sans-serif;font-variant-ligatures:normal;font-variant-position:normal;font-variant-caps:normal;font-variant-numeric:normal;font-variant-alternates:normal;font-feature-settings:normal;text-indent:0;text-align:start;text-decoration:none;text-decoration-line:none;text-decoration-style:solid;text-decoration-color:#000000;letter-spacing:normal;word-spacing:normal;text-transform:none;writing-mode:lr-tb;direction:ltr;text-orientation:mixed;dominant-baseline:auto;baseline-shift:baseline;text-anchor:start;white-space:normal;shape-padding:0;clip-rule:evenodd;display:inline;overflow:visible;visibility:visible;opacity:1;isolation:auto;mix-blend-mode:normal;color-interpolation:sRGB;color-interpolation-filters:linearRGB;solid-color:#000000;solid-opacity:1;vector-effect:none;fill:#000000;fill-opacity:1;fill-rule:evenodd;stroke:none;stroke-width:20;stroke-linecap:butt;stroke-linejoin:miter;stroke-miterlimit:1.5;stroke-dasharray:none;stroke-dashoffset:0;stroke-opacity:1;color-rendering:auto;image-rendering:auto;shape-rendering:auto;text-rendering:auto;enable-background:accumulate" /></g></svg>

<svg xmlns="http://www.w3.org/2000/svg" viewBox="0 0 800 600" fill-rule="evenodd" clip-rule="evenodd" stroke-linecap="round" stroke-linejoin="round" stroke-miterlimit="1.5"><g color="#000" font-weight="400" font-family="sans-serif"><path d="M271.78 121.082v38.494c-29.294 4.811-51.801 30.366-51.801 60.975s22.507 56.163 51.8 60.974V478.92h20V281.525c29.294-4.81 51.801-30.365 51.801-60.974 0-30.61-22.507-56.164-51.8-60.975v-38.494h-20zm10 57.668a41.65 41.65 0 0141.8 41.8 41.65 41.65 0 01-41.8 41.802 41.65 41.65 0 01-41.801-41.801 41.65 41.65 0 0141.8-41.801z" style="line-height:normal;font-variant-ligatures:normal;font-variant-position:normal;font-variant-caps:normal;font-variant-numeric:normal;font-variant-alternates:normal;font-feature-settings:normal;text-indent:0;text-align:start;text-decoration-line:none;text-decoration-style:solid;text-decoration-color:#000;text-transform:none;text-orientation:mixed;white-space:normal;shape-padding:0;isolation:auto;mix-blend-mode:normal;solid-color:#000;solid-opacity:1" clip-rule="nonzero" overflow="visible" fill-rule="nonzero"/><path d="M390 121.082v198.494c-29.293 4.811-51.8 30.366-51.8 60.975s22.507 56.163 51.8 60.974v37.395h20v-37.395c29.293-4.81 51.8-30.365 51.8-60.974 0-30.61-22.507-56.164-51.8-60.975V121.082h-20zm10 217.668a41.65 41.65 0 0141.8 41.8 41.65 41.65 0 01-41.8 41.802 41.65 41.65 0 01-41.8-41.801A41.65 41.65 0 01400 338.75zM508.22 121.082v98.494c-29.292 4.811-51.8 30.366-51.8 60.975s22.508 56.163 51.8 60.974V478.92h20V341.525c29.294-4.81 51.801-30.365 51.801-60.974 0-30.61-22.507-56.164-51.8-60.975v-98.494h-20zm10 117.668a41.65 41.65 0 0141.801 41.8 41.65 41.65 0 01-41.8 41.802 41.65 41.65 0 01-41.801-41.801 41.65 41.65 0 0141.8-41.801z" style="line-height:normal;font-variant-ligatures:normal;font-variant-position:normal;font-variant-caps:normal;font-variant-numeric:normal;font-variant-alternates:normal;font-feature-settings:normal;text-indent:0;text-align:start;text-decoration-line:none;text-decoration-style:solid;text-decoration-color:#000;text-transform:none;text-orientation:mixed;white-space:normal;shape-padding:0;isolation:auto;mix-blend-mode:normal;solid-color:#000;solid-opacity:1" overflow="visible"/></g></svg>
